; generated by Slic3r 1.2.9 on 2016-05-21 at 19:23:25

; external perimeters extrusion width = 0.30mm
; perimeters extrusion width = 0.40mm
; infill extrusion width = 0.40mm
; solid infill extrusion width = 0.40mm
; top infill extrusion width = 0.40mm

M107
M190 S65 ; set bed temperature
M104 S205 ; set temperature
G28 ; home all axes
G1 Z5 F5000 ; lift nozzle

M109 S205 ; wait for temperature to be reached
G21 ; set units to millimeters
G90 ; use absolute coordinates
M82 ; use absolute distances for extrusion
G92 E0
G1 Z0.300 F7800.000
G1 E-1.00000 F2400.00000
G92 E0
G1 X93.865 Y94.624 F7800.000
G1 E1.00000 F2400.00000
G1 X94.473 Y94.180 E1.01712 F631.669
G1 X95.158 Y93.749 E1.03552
G1 X96.015 Y93.335 E1.05715
G1 X96.921 Y93.044 E1.07878
G1 X97.818 Y92.885 E1.09949
G1 X98.537 Y92.845 E1.11586
G1 X101.591 Y92.847 E1.18530
G1 X102.292 Y92.909 E1.20129 F631.669
G1 X103.176 Y93.092 E1.22180
G1 X103.470 Y93.181 E1.22879
G1 X104.054 Y93.402 E1.24299
G1 X104.342 Y93.534 E1.25020
G1 X105.172 Y93.990 E1.27173
G1 X105.705 Y94.328 E1.28606
G1 X105.908 Y94.477 E1.29179
G1 X106.799 Y95.296 E1.31930
G1 X106.968 Y95.491 E1.32517
G1 X107.531 Y96.277 E1.34714
G1 X107.881 Y96.932 E1.36402
G1 X108.068 Y97.375 E1.37495
G1 X108.231 Y97.863 E1.38664
G1 X108.325 Y98.223 E1.39512
G1 X108.392 Y98.551 E1.40272
G1 X108.488 Y99.382 E1.42173
G1 X108.486 Y100.365 E1.44408
G1 X108.434 Y100.997 E1.45849
G1 X108.309 Y101.680 E1.47427
G1 X108.107 Y102.358 E1.49037
G1 X107.812 Y103.060 E1.50766
G1 X107.451 Y103.701 E1.52441
G1 X107.029 Y104.289 E1.54085
G1 X106.324 Y105.038 E1.56422
G1 X106.116 Y105.220 E1.57051
G1 X105.199 Y105.862 E1.59595
G1 X104.656 Y106.145 E1.60988
G1 X103.951 Y106.424 E1.62712
G1 X102.379 Y106.912 E1.66452
G1 X101.750 Y107.037 E1.67913
G1 X101.297 Y107.089 E1.68947
G1 X99.805 Y107.152 E1.72343
G1 X99.041 Y107.137 E1.74080
G1 X98.368 Y107.050 E1.75622
G1 X97.695 Y106.891 E1.77193
G1 X95.977 Y106.352 E1.81289
G1 X95.191 Y106.023 E1.83226
G1 X93.341 Y104.693 E1.88404
G1 X92.273 Y103.242 E1.92499
G1 X92.074 Y102.841 E1.93519
G1 X91.553 Y101.074 E1.97706
G1 X91.494 Y100.487 E1.99046
G1 X91.465 Y99.791 E2.00629
G1 X91.518 Y98.868 E2.02731
G1 X91.747 Y97.796 E2.05222
G1 X91.964 Y97.188 E2.06691
G1 X92.241 Y96.603 E2.08161
G1 X92.820 Y95.704 E2.10594
G1 X92.957 Y95.531 E2.11095
G1 X93.833 Y94.656 E2.13909
G1 E1.13909 F2400.00000
G92 E0
G1 X100.533 Y100.282 F7800.000
G1 E1.00000 F2400.00000
G1 X99.683 Y100.315 E1.01932 F631.669
G1 X99.506 Y99.967 E1.02819
G1 X100.526 Y99.967 E1.05138
G1 X100.532 Y100.237 E1.05752
G1 X100.268 Y100.140 F7800.000
M104 S200 ; set temperature
M140 S60 ; wait for bed temperature to be reached
G1 Z0.500 F7800.000
G1 X101.797 Y100.072 F7800.000
G1 X101.245 Y100.085 E1.06154 F600.000
G1 X100.736 Y100.425 E1.06599
G1 X99.593 Y100.470 E1.07431
G1 X99.447 Y100.179 E1.07668
G1 X99.317 Y100.076 E1.07788
G1 X98.232 Y100.026 E1.08578
G1 X98.232 Y99.817 E1.08730
G1 X101.775 Y99.817 E1.11308
G1 X101.793 Y100.027 E1.11461
G1 X101.531 Y99.934 F7800.000
G1 X100.865 Y100.054 F7800.000
G1 X100.638 Y100.123 E1.11965 F600.000
G1 X99.599 Y100.143 E1.14168
G1 Z0.700 F7800.000
G1 X101.797 Y100.072 F7800.000
G1 X101.244 Y100.085 E1.14570 F600.000
G1 X100.732 Y100.426 E1.15018
G1 X99.592 Y100.470 E1.15847
G1 X99.447 Y100.179 E1.16084
G1 X99.315 Y100.076 E1.16205
G1 X98.232 Y100.026 E1.16994
G1 X98.232 Y99.817 E1.17147
G1 X101.775 Y99.817 E1.19724
G1 X101.793 Y100.027 E1.19877
G1 X101.531 Y99.934 F7800.000
G1 X100.863 Y100.054 F7800.000
G1 X100.634 Y100.123 E1.20384 F600.000
G1 X99.599 Y100.143 E1.22579
M106 S255
G1 Z0.900 F7800.000
G1 X101.797 Y100.072 F7800.000
G1 X101.245 Y100.085 E1.22982 F600.000
G1 X100.732 Y100.426 E1.23430
G1 X99.592 Y100.470 E1.24259
G1 X99.447 Y100.179 E1.24495
G1 X99.315 Y100.076 E1.24617
G1 X98.232 Y100.026 E1.25406
G1 X98.232 Y99.817 E1.25558
G1 X101.775 Y99.817 E1.28135
G1 X101.793 Y100.027 E1.28289
G1 X101.531 Y99.934 F7800.000
G1 X100.863 Y100.054 F7800.000
G1 X100.634 Y100.123 E1.28796 F600.000
G1 X99.599 Y100.143 E1.30991
G1 Z1.100 F7800.000
G1 X101.797 Y100.072 F7800.000
G1 X101.245 Y100.085 E1.31393 F600.000
G1 X100.732 Y100.426 E1.31841
G1 X99.592 Y100.470 E1.32671
G1 X99.447 Y100.179 E1.32907
G1 X99.315 Y100.076 E1.33029
G1 X98.232 Y100.026 E1.33817
G1 X98.232 Y99.817 E1.33970
G1 X101.775 Y99.817 E1.36547
G1 X101.793 Y100.027 E1.36700
G1 X101.531 Y99.934 F7800.000
G1 X100.863 Y100.054 F7800.000
G1 X100.634 Y100.123 E1.37207 F600.000
G1 X99.599 Y100.143 E1.39402
G1 Z1.300 F7800.000
G1 X101.797 Y100.072 F7800.000
G1 X101.244 Y100.085 E1.39805 F600.000
G1 X100.732 Y100.426 E1.40252
G1 X99.592 Y100.470 E1.41082
G1 X99.447 Y100.179 E1.41318
G1 X99.315 Y100.076 E1.41440
G1 X98.232 Y100.026 E1.42229
G1 X98.232 Y99.817 E1.42381
G1 X101.775 Y99.817 E1.44958
G1 X101.793 Y100.027 E1.45111
G1 X101.531 Y99.934 F7800.000
G1 X100.862 Y100.054 F7800.000
G1 X100.634 Y100.123 E1.45617 F600.000
G1 X99.599 Y100.143 E1.47812
G1 Z1.500 F7800.000
G1 X98.728 Y99.817 F7800.000
G1 X101.167 Y99.817 E1.49586 F600.000
G1 X101.237 Y99.595 E1.49756
G1 X101.324 Y99.535 E1.49832
G1 X101.398 Y99.535 E1.49886
G1 X101.476 Y99.611 E1.49965
G1 X101.528 Y99.817 E1.50120
G1 X101.775 Y99.817 E1.50300
G1 X101.795 Y100.074 E1.50488
G1 X101.245 Y100.085 E1.50888
G1 X100.742 Y100.424 E1.51330
G1 X99.590 Y100.467 E1.52168
G1 X99.431 Y100.154 E1.52423
G1 X99.310 Y100.076 E1.52528
G1 X98.232 Y100.032 E1.53313
G1 X98.232 Y99.817 E1.53470
G1 X98.367 Y99.817 E1.53568
G1 X98.437 Y99.595 E1.53738
G1 X98.473 Y99.556 E1.53776
G1 X98.524 Y99.535 E1.53816
G1 X98.598 Y99.535 E1.53870
G1 X98.660 Y99.585 E1.53928
G1 X98.717 Y99.773 E1.54071
G1 X98.757 Y100.115 F7800.000
G1 X99.596 Y100.142 F7800.000
G1 X100.643 Y100.122 E1.56292 F600.000
G1 X100.868 Y100.054 E1.56790
G1 Z1.700 F7800.000
G1 X101.900 Y99.983 F7800.000
G1 X101.338 Y100.041 E1.57355 F600.000
G1 X101.169 Y100.006 E1.57528
G1 X100.999 Y99.924 E1.57716
G1 X100.937 Y99.920 E1.57779
G1 X98.901 Y99.913 E1.59815
G1 X98.754 Y99.969 E1.59972
G1 X98.546 Y99.997 E1.60182
G1 X98.298 Y99.945 E1.60436
G1 X98.217 Y99.683 E1.60710
G1 E0.60710 F2400.00000
G92 E0
M107
M104 S0 ; turn off temperature
G28 X0  ; home X axis
M84     ; disable motors

; filament used = 1.7mm (0.0cm3)

; avoid_crossing_perimeters = 1
; bed_shape = 0x0,200x0,200x200,0x200
; bed_temperature = 60
; before_layer_gcode = 
; bridge_acceleration = 0
; bridge_fan_speed = 100
; brim_width = 0
; complete_objects = 0
; cooling = 1
; default_acceleration = 0
; disable_fan_first_layers = 3
; duplicate_distance = 6
; end_gcode = M104 S0 ; turn off temperature\nG28 X0  ; home X axis\nM84     ; disable motors\n
; extruder_clearance_height = 20
; extruder_clearance_radius = 20
; extruder_offset = 0x0
; extrusion_axis = E
; extrusion_multiplier = 1
; fan_always_on = 0
; fan_below_layer_time = 60
; filament_colour = #FFFFFF
; filament_diameter = 3
; first_layer_acceleration = 0
; first_layer_bed_temperature = 65
; first_layer_extrusion_width = 200%
; first_layer_speed = 30
; first_layer_temperature = 205
; gcode_arcs = 0
; gcode_comments = 0
; gcode_flavor = reprap
; infill_acceleration = 0
; infill_first = 0
; layer_gcode = 
; max_fan_speed = 100
; max_print_speed = 80
; max_volumetric_speed = 0
; min_fan_speed = 35
; min_print_speed = 10
; min_skirt_length = 0
; notes = 
; nozzle_diameter = 0.3
; only_retract_when_crossing_perimeters = 1
; ooze_prevention = 0
; output_filename_format = [input_filename_base].gcode
; perimeter_acceleration = 0
; post_process = 
; pressure_advance = 0
; resolution = 0
; retract_before_travel = 2
; retract_layer_change = 0
; retract_length = 1
; retract_length_toolchange = 10
; retract_lift = 0
; retract_restart_extra = 0
; retract_restart_extra_toolchange = 0
; retract_speed = 40
; skirt_distance = 6
; skirt_height = 1
; skirts = 1
; slowdown_below_layer_time = 5
; spiral_vase = 0
; standby_temperature_delta = -5
; start_gcode = G28 ; home all axes\nG1 Z5 F5000 ; lift nozzle\n
; temperature = 200
; threads = 2
; toolchange_gcode = 
; travel_speed = 130
; use_firmware_retraction = 0
; use_relative_e_distances = 0
; use_volumetric_e = 0
; vibration_limit = 0
; wipe = 0
; z_offset = 0
; dont_support_bridges = 1
; extrusion_width = 0
; first_layer_height = 0.3
; infill_only_where_needed = 0
; interface_shells = 0
; layer_height = 0.2
; raft_layers = 0
; seam_position = aligned
; support_material = 0
; support_material_angle = 0
; support_material_contact_distance = 0.2
; support_material_enforce_layers = 0
; support_material_extruder = 1
; support_material_extrusion_width = 0
; support_material_interface_extruder = 1
; support_material_interface_layers = 3
; support_material_interface_spacing = 0
; support_material_interface_speed = 100%
; support_material_pattern = pillars
; support_material_spacing = 2.5
; support_material_speed = 60
; support_material_threshold = 0
; xy_size_compensation = 0
; bottom_solid_layers = 3
; bridge_flow_ratio = 1
; bridge_speed = 60
; external_fill_pattern = rectilinear
; external_perimeter_extrusion_width = 0
; external_perimeter_speed = 50%
; external_perimeters_first = 0
; extra_perimeters = 1
; fill_angle = 45
; fill_density = 40%
; fill_pattern = honeycomb
; gap_fill_speed = 20
; infill_every_layers = 10
; infill_extruder = 1
; infill_extrusion_width = 0
; infill_overlap = 15%
; infill_speed = 60
; overhangs = 1
; perimeter_extruder = 1
; perimeter_extrusion_width = 0
; perimeter_speed = 30
; perimeters = 3
; small_perimeter_speed = 15
; solid_infill_below_area = 70
; solid_infill_every_layers = 0
; solid_infill_extruder = 1
; solid_infill_extrusion_width = 0
; solid_infill_speed = 20
; thin_walls = 1
; top_infill_extrusion_width = 0
; top_solid_infill_speed = 15
; top_solid_layers = 3
